epam-assets/icon-sources/18/fav & rates-favorite-outline.svg

<svg width="18" height="18" viewBox="0 0 18 18" fill="none" xmlns="http://www.w3.org/2000/svg">
<path fill-rule="evenodd" clip-rule="evenodd" d="M12.375 2.25C11.07 2.25 9.8175 2.8575 9 3.8175C8.1825 2.8575 6.93 2.25 5.625 2.25C3.315 2.25 1.5 4.065 1.5 6.375C1.5 9.21 4.05 11.52 7.9125 15.03L9 16.0125L10.0875 15.0225C13.95 11.52 16.5 9.21 16.5 6.375C16.5 4.065 14.685 2.25 12.375 2.25ZM9.075 13.9125L9 13.9875L8.925 13.9125C5.355 10.68 3 8.5425 3 6.375C3 4.875 4.125 3.75 5.625 3.75C6.78 3.75 7.905 4.4925 8.3025 5.52H9.705C10.095 4.4925 11.22 3.75 12.375 3.75C13.875 3.75 15 4.875 15 6.375C15 8.5425 12.645 10.68 9.075 13.9125Z" fill="#6C6F80"/>
</svg>

<svg xmlns="http://www.w3.org/2000/svg" width="18" height="18" fill="none" viewBox="0 0 18 18">
  <path fill="#6C6F80" fill-rule="evenodd" d="M12.375 2.25A4.491 4.491 0 0 0 9 3.817 4.491 4.491 0 0 0 5.625 2.25 4.085 4.085 0 0 0 1.5 6.375c0 2.835 2.55 5.145 6.412 8.655L9 16.012l1.088-.99C13.95 11.52 16.5 9.21 16.5 6.376a4.085 4.085 0 0 0-4.125-4.125Zm-3.3 11.662L9 13.987l-.075-.075C5.355 10.68 3 8.543 3 6.375c0-1.5 1.125-2.625 2.625-2.625 1.155 0 2.28.742 2.678 1.77h1.402c.39-1.027 1.515-1.77 2.67-1.77 1.5 0 2.625 1.125 2.625 2.625 0 2.168-2.355 4.305-5.925 7.537Z" clip-rule="evenodd"/>
</svg>
